 -----BEGIN PGP PUBLIC KEY BLOCK-----

mQENBGExmxQBCADhd87wj6JQIOxQMQray8KydJvYGsLfZmg/RKoGzf4NJoGSdBhv
bC0qgdv4YvdqgfJCjOY648n/jGOmxpmcw6BimWRWpn7gem2JfXAUylT6boSwK+kZ
2co6a99N6lnalTQmsvXwOCaw0bRYhcpP+AV/s/BGtATyHDBua7KIBJaq67xfOm47
ya1RvC1J1/iCC2OjtWvhB+n4795ZSW1wanjbX6fZrRHc2p23rvNFgf6aCzktq9Ig
p3naegMkDepg8B+Th66lBOBaDSBwLu5zwKua9E9E8yspki4Tyg4sHewYpidJU3bL
EEPzkEi0N3jbD+UeN9ISB1Q+ulL5rWM0jXM3ABEBAAG0FOKBqiAyNTcgPDI1N3NA
cG0ubWU+iQFOBBMBCAA4FiEE+atTNNmCxtOloN/uHMqvAs/JIbMFAmExmxQCGwMF
CwkIBwIGFQoJCAsCBBYCAwECHgECF4AACgkQHMqvAs/JIbNwGQgAxWEqiGUSga3J
WUzAAC0qhGSTMaF+KAaJ0iPTthjUsWKPvFOtYfoJbyjFWXhX1ZmtHfyafyFOeI7A
e9640eo6QhIZkezjtxUwU6604uAwuWcziyHJLr3dL+fM50yY+iMi/W2ipjuPUGe5
4Z50A3juVsu/rdLQn8K1QJd5B5Tm/mSyRn70pUmUTioKZdBq1aPc8GPZcYMu+3rf
L5UjvuwGPIu+KoTv+P6GVMbjm42C+MU4HiDhghbNsSYmwNsHVTv+qEpof8egmAxg
3NCELGPSfx8pBjc1ASGMYROz2BCQdpdTdSjZM0+ndIi1SMYmRo0+TEnj0qrYpEju
MGgYxJAt7LkBDQRhMZsUAQgAz7DLyySyoO15AhVHi6Pu1cP87GxV/pr5ygH/B6IF
svuAts9zdv5GrRLmj4jGMHJi3hgvWa/7zGcs4Lt/uTfzR6zJt1xjFgT6YwhI079o
31QfGNmfSk6gouJPvj+wEFgRUwcF85avU3s9CBEEtsDhMSA0rPFHGq3OtQ4TB04I
SQjGcR7jnzZaZUzydqgVfwQsKczF6FhM0zStHL/rETvBA6bsHVOPsMqoX9zXgtYD
RJ90FtODEb560HKvlgXesBanNo2TyetYy6KXZSz6jzj9q5zWcgV/E63JAGNKMYxP
a0sowIbUSQ0ZyGlGb0xuC1iuEaoqheLtPu4omgtkyBx+AwARAQABiQE2BBgBCAAg
FiEE+atTNNmCxtOloN/uHMqvAs/JIbMFAmExmxQCGwwACgkQHMqvAs/JIbMjXAf/
fnUBqr8mEKvj1N6YGdkAimhEhY6Uj+nLQ1KsqYP5gVDG2Gd9/lRmWx3iokLlTade
WHghlGkFdtI9XZzHpcDHGdOyfM2eIMMUtwtT34Uj6dmkbqZXLffu/JLWfJ2xwBf7
psNTxryCmFNyQdcTYWR3n4UlHbcPkXyVeD5z22kd4drXKqSEu5tqcCf7jX64BIRI
e0ZKKfW6fMkJySLYJNNchhDcU+EAYcHfiC1ddmjB/hQIZVz/j7vo61Ut1hxrWDbP
AHLuWQgkt2eutIfOHjDzxsOlSF14tyG1UO3AOa+Eo7mg7VudL4ySh+WJU709ea1M
82xd59E9XtCFPHh2ZNeFiw==
=QTHn

-----END PGP PUBLIC KEY BLOCK-----
